src/assets/icons/bem.svg

<svg width="500" height="413" fill="none" xmlns="http://www.w3.org/2000/svg"><path d="M296 354v58h203v-58H296ZM.5 1H115v114.5h129.5c29.2 11.283 39.911 20.935 46.5 45.5 6.475 59.567 6.374 93.308 0 154-12.954 20.772-23.527 28.276-46.5 36.5H.5V1Z" fill="#D9D9D9"/><path d="M296 354v58h203v-58H296ZM.5 1H115v114.5h129.5c29.2 11.283 39.911 20.935 46.5 45.5 6.475 59.567 6.374 93.308 0 154-12.954 20.772-23.527 28.276-46.5 36.5H.5V1Z" stroke="#000"/></svg>

<svg width="500" height="413" viewBox="0 0 500 413" fill="none" xmlns="http://www.w3.org/2000/svg">
<path d="M296 354V412H499V354H296Z" fill="#D9D9D9"/>
<path d="M0.5 1H115V115.5H244.5C273.7 126.783 284.411 136.435 291 161C297.475 220.567 297.374 254.308 291 315C278.046 335.772 267.473 343.276 244.5 351.5H0.5V1Z" fill="#D9D9D9"/>
<path d="M296 354V412H499V354H296Z" stroke="black"/>
<path d="M0.5 1H115V115.5H244.5C273.7 126.783 284.411 136.435 291 161C297.475 220.567 297.374 254.308 291 315C278.046 335.772 267.473 343.276 244.5 351.5H0.5V1Z" stroke="black"/>
</svg>
